X: 176
T: Humors of Glynn   #2
R: air, waltz, jig
%S: s: 2 b: 16(7+7)
B: O'Neill's 1850 #176
O: F.O'Neill
Z: 1997 henrik.norbeck@mailbox.swipnet.se
Q: "Cheerfully"
N: Compacted via repeats and multiple endings [JC]
M: 6/8
L: 1/8
K: Bm
A "^A"| B(d/c/B/A/) .B(FA) | .d.d.d .d(FA) |1 B(d/c/B/A/) .B(FA) | (DFA) B2 :|2 GBG FAF | DFA B2 |]|\
B "^B"| (Ad).d dcd |
(dfd) (ecA) | (ga/g/f/e/) .f(dB) | AFA B2 |]| A "^C"| dfa b3 | (ab/a/g/f/) a3 | (ga/g/f/e/) fdB | AFA B2 |]
